sharp/svg/perm_identity.svg

<svg xmlns="http://www.w3.org/2000/svg" width="24" height="24"><path fill="none" d="M0 0h24v24H0V0z"/><g fill="currentColor"><path d="M12 12c2.21 0 4-1.79 4-4s-1.79-4-4-4-4 1.79-4 4 1.79 4 4 4zm0-6c1.1 0 2 .9 2 2s-.9 2-2 2-2-.9-2-2 .9-2 2-2zM12 13c-2.67 0-8 1.34-8 4v3h16v-3c0-2.66-5.33-4-8-4zm6 5H6v-.99c.2-.72 3.3-2.01 6-2.01s5.8 1.29 6 2v1z"/></g></svg>

<?xml version="1.0" encoding="utf-8"?>
<!-- Generator: Adobe Illustrator 19.1.0, SVG Export Plug-In . SVG Version: 6.00 Build 0)  -->
<svg version="1.1" xmlns="http://www.w3.org/2000/svg" xmlns:xlink="http://www.w3.org/1999/xlink" x="0px" y="0px" width="24px"
	 height="24px" viewBox="0 0 24 24" enable-background="new 0 0 24 24" xml:space="preserve">
<g id="Bounding_Boxes">
	<g id="ui_x5F_spec_x5F_header_copy_3" display="none">
	</g>
	<path fill="none" d="M0,0h24v24H0V0z"/>
</g>
<g id="Sharp" fill="currentColor">
	<g id="ui_x5F_spec_x5F_header_copy_4" display="none">
	</g>
	<g>
		<path d="M12,12c2.21,0,4-1.79,4-4c0-2.21-1.79-4-4-4C9.79,4,8,5.79,8,8C8,10.21,9.79,12,12,12z M12,6c1.1,0,2,0.9,2,2s-0.9,2-2,2
			c-1.1,0-2-0.9-2-2S10.9,6,12,6z"/>
		<path d="M12,13c-2.67,0-8,1.34-8,4v3h16v-3C20,14.34,14.67,13,12,13z M18,18H6l0-0.99C6.2,16.29,9.3,15,12,15s5.8,1.29,6,2V18z"/>
	</g>
</g>
</svg>
